actions/16/view-calendar-tasks.svg

<svg xmlns="http://www.w3.org/2000/svg" viewBox="0 0 16 16">
  <defs id="defs3051">
<style type="text/css" id="current-color-scheme">.ColorScheme-Text {color:#fcfcfc;}</style>
  </defs>
 <path style="fill:currentColor;fill-opacity:1;stroke:none" 
       d="M 5,2 C 3,2 3,4 3,4 H 2 v 1 h 1 v 6 H 2 v 1 h 1 c 0,0 0,2 2,2 2,0 5,0 7,0 2,0 2,-2 2,-2 0,0 0,-6 0,-8 C 14,2 12,2 12,2 12,2 7,2 5,2 Z m 1,1 c 1,0 6,0 6,0 0,0 1,0 1,1 0,1 0,8 0,8 0,0 0,1 -1,1 -1,0 -5,0 -6,0 C 5,13 5,12 5,12 V 4 C 5,4 5,3 6,3 Z M 6,4 V 6 H 8 V 4 Z m 3,0 v 1 h 3 V 4 Z M 6,8 v 2 H 8 V 8 Z m 3,0 v 1 h 3 V 8 Z m 1,3 v 1 h 2 v -1 z"
     class="ColorScheme-Text"
     />
</svg>

<svg xmlns="http://www.w3.org/2000/svg" viewBox="0 0 16 16">
  <defs id="defs3051">
    <style type="text/css" id="current-color-scheme">
      .ColorScheme-Text {
        color:#eff0f1;
      }
      </style>
  </defs>
 <path style="fill:currentColor;fill-opacity:1;stroke:none" 
       d="M 3 2 L 3 3 L 3 4 L 2 4 L 2 5 L 3 5 L 3 11 L 2 11 L 2 12 L 3 12 L 3 13 L 3 14 L 5 14 L 7 14 L 14 14 L 14 13 L 14 7 L 14 2 L 13 2 L 3 2 z M 5 3 L 13 3 L 13 7 L 13 13 L 7 13 L 5 13 L 5 3 z M 6 4 L 6 6 L 8 6 L 8 4 L 6 4 z M 9 4 L 9 5 L 12 5 L 12 4 L 9 4 z M 6 8 L 6 10 L 8 10 L 8 8 L 6 8 z M 9 8 L 9 9 L 12 9 L 12 8 L 9 8 z M 10 11 L 10 12 L 12 12 L 12 11 L 10 11 z "
     class="ColorScheme-Text"
     />
</svg>
